!!!OTL: MEI MUTTER KOCHT MIR ZWIEBELN
!!!ARE: Europa, Mitteleuropa, Deutschland, Schwaben, Schwaebisch - Hall
!!!SCT: E1045
!!!YEM: Copyright 1995, estate of Helmut Schaffrath.
**kern
*ICvox
*Ivox
*M2/4
*k[f#]
*G:
{8d
=1
8.g
16a
8b
8cc
=2
8dd
16dd
16cc#
8dd}
{8gg
=3
8dd
8gg
8dd
8gg
=4
4dd
8r}
{8dd
=5
8.cc
16b
8a
8g
=6
8f#
8e
8d}
{8dd
=7
8g
8dd
8g
8dd
=8
4g
8r}
==
!!!AGN: Tanz - Lied, Reigen; Salzsieder - Lied
!!!ONB: ESAC (Essen Associative Code) Database: ERK3
!!!AMT: simple duple
!!!AIN: vox
!!!EED: Helmut Schaffrath
!!!EEV: 1.0
*-
